X: 1
T: Sabrali sa se sabrali    [Bm]
O: Bulgaria
S: Pinewoods International Collection 2nd ed. p.245-6
Z: 2018 John Chambers <jc:trillian.mit.edu>
L: 1/8
M: 7+9/8
P: AAB AB ABB
K: Bm
"A"|:\
"Em"Bee e2 (ed) | "Bm"(ef)(fd) (dB-) B3 |\
cdB c2"A"A2 | A2 "Bm"B3 B2 z2 :|
"B"|:\
"A"cdB c2 (AE) | A2 "Em"B3 d2 cB |\
"A"cdB c2 (AE) | A2 "Bm"B3 B2 z2 :|
%%text Last time, slow down the last bar.

%%sep 1 1 500

